X: 1
T: Captain Campbell's Reel
R: reel
N: Originally a strathspey
B: James S Kerr's "Merrie Melodies", 1st Collection
B: The Athole Collection
B: James M Hunter "The Fiddle Music of Scotland"
Z: 2007 by John Chambers <jc:trillian.mit.edu>
M: C
L: 1/8
K: Am
G |\
  "Am"EAAB cABG | "G"DGGA BdBG |\
  "Am"EAAB cBce | "G"dBgB "Am"A3 :: B |\
  "Am"Aaag edce |
   "G"dege dBGB |\
[1 "Am"Aaag edce | "G"dBgB "Am"A3 :|\
[2 "Am"cA"G"dB "C"edce | "G"dBgB "Am"A3 |]
